X:4
T:
T:Variation II.
M:3/4
L:1/8
K:C
%1
L:1/16
G3 F | EGed cEEG ceag | ^fgg^d deeB BccG |
FGGB BGGd dGGB | cGEF GeFd EcGF | EGed cEEG ceag
^fgg^d deeB BccG | FGGB BGGd dGGB | BcGE C4 || e3d |  d^f Ac ^F4 e3d |
dgBd G4 B3 d | d^FFe eFFd d3c | BggB BddG e3d | d^fAc ^F4 e3d |
dgBd G4 B3d | d^FFe eFFe {de}"rall."d3F | G8 "Tempo I"G3 F | EGed cEEG ceag |
^fgg^d deeB BccG | FGGB BGGd dGGB | cGEF GeFd EcGF |
EGed cEEG ceag | ^fgg^d deeB BccG | FGGB BGGd dGGB | BcGE C4 |]


